X:74
T:Foggy Dew - Grimes (FWB)
%%VWML:SBG-1-2-356-0
F:http://www.vwml.org/record/SBG/1/2/356
Z:Original Sibelius transcriptions by M. & S. Graebe
M:4/4
I:linebreak $
K:Eb
V:1 treble nm="P1"
V:1
 B2 | c3 d e2 c2 | d2 c2 B2 B_A | G2 ee dc B2 | c12 :: DD |$ E2 FG _A2 G2 | d3 d d2 dc | %8
 BA BG D2 A2 | G4 |"^or" ^d2 | e2 A2 B2 B2 | E4"_incomplete" x4 :| %13
T:Foggy Dew - Grimes (H Fl S)
F:http://www.vwml.org/record/SBG/1/2/356
Z:Original Sibelius transcriptions by M. & S. Graebe
M:4/4
I:linebreak $
K:Bb
V:1 treble nm="P1"
V:1
 B2 | c3 d e2 c2 | d2 c2 B2 BA | G2 e2 d2 cB | c6 DE | F2 FG _A2 GF | d2 dd d2 dc |$ BA BG D2 F2 | %8
 G6 B2 | c3 d e2 d2 | d2 c2 B2 BA | G2 e2 d2 cB |$ c4 DE | F2 FG _A2 GF | d2 dd d2 dB | %15
 G2 Ac BA BG | D2 A2 G4 | %17
T:Foggy Dew - Sandry
F:http://www.vwml.org/record/SBG/1/2/356
Z:Original Sibelius transcriptions by M. & S. Graebe
M:4/4
I:linebreak $
K:C
V:1 treble nm="P1"
V:1
 C2 | C2 EF G2 AB | cA F4 AA | G2 EE F2 DD | C3 C2 | C2 EF G2 AB |$ cA F4 AA | G2 FE D2 G2 | %8
 C6 G2 | AA B2 c3 B | c2 E2 F2 GG |$ AA B2 c2 d2 | c2 B2 z2 G2 | GF E2 D2 C2 | c2 d2 c2 AA | %15
 G2 FE D2 E2 | C8 | %17
T:Foggy Dew - Kidson
F:http://www.vwml.org/record/SBG/1/2/356
Z:Original Sibelius transcriptions by M. & S. Graebe
M:4/4
I:linebreak $
K:F
V:1 treble nm="P1"
V:1
 F | F>GA>B c2 f2 |{e} d2 c>B{B} A2 z c |{B} A2 GF E>FG>A | F6 z F | F>GA>B c2 f2 |$ %6
{e} d2 c>B{B} A2 z c |{B} A2 GF E>FG>A | F6 :: z c | c3 d _e3 e |{_e} d2 cB{B} A2 z F |$ %12
 f2 f2 g_ecB |{B} A6 z c | F>GA>c c2 f2 |{e} d2 c>B{B} A2 z c |{B} A2 GF E>FG>A | F6 x2 :| %18

